world_stage/static/flags/rect/cmr.svg

<svg height="533.33331" viewBox="0 0 800 533.33331" width="800" xmlns="http://www.w3.org/2000/svg"><path d="m0 0h200v400h-200z" fill="#007a5e" transform="matrix(1.3333333 0 0 -1.3333333 0 533.33333)"/><path d="m200 0h200v400h-200z" fill="#ce1126" transform="matrix(1.3333333 0 0 -1.3333333 0 533.33333)"/><g fill="#fcd116"><path d="m400 0h200.001v400h-200.001z" transform="matrix(1.3333333 0 0 -1.3333333 0 533.33333)"/><path d="m0 0-16.481-50.723 25.362-8.24z" transform="matrix(1.3333333 0 0 -1.3333333 400 195.55533)"/><path d="m0 0 16.48-50.723-25.36-8.24z" transform="matrix(1.3333333 0 0 -1.3333333 400 195.55533)"/><path d="m0 0h-53.333v-26.667z" transform="matrix(1.3333333 0 0 -1.3333333 467.63027 244.692)"/><path d="m0 0-43.147-31.348-15.674 21.573z" transform="matrix(1.3333333 0 0 -1.3333333 467.63027 244.692)"/><path d="m0 0-16.481 50.723-25.361-8.241z" transform="matrix(1.3333333 0 0 -1.3333333 441.79813 324.19667)"/><path d="m0 0-43.147 31.349 15.673 21.573z" transform="matrix(1.3333333 0 0 -1.3333333 441.79813 324.19667)"/><path d="m0 0 43.147 31.349-15.674 21.573z" transform="matrix(1.3333333 0 0 -1.3333333 358.20187 324.19667)"/><path d="m0 0 16.481 50.723 25.362-8.241z" transform="matrix(1.3333333 0 0 -1.3333333 358.20187 324.19667)"/><g transform="matrix(1.3333333 0 0 -1.3333333 332.3692 244.692)"><path d="m0 0 43.147-31.348 15.675 21.573z"/><path d="m0 0h53.333v-26.667z"/></g></g></svg>

<?xml version="1.0" encoding="UTF-8" standalone="no"?>
<!-- Created with Inkscape (http://www.inkscape.org/) -->

<svg
   version="1.1"
   id="svg1"
   width="800"
   height="533.33331"
   viewBox="0 0 800 533.33331"
   sodipodi:docname="cm.ai"
   xmlns:inkscape="http://www.inkscape.org/namespaces/inkscape"
   xmlns:sodipodi="http://sodipodi.sourceforge.net/DTD/sodipodi-0.dtd"
   xmlns="http://www.w3.org/2000/svg"
   xmlns:svg="http://www.w3.org/2000/svg">
  <defs
     id="defs1" />
  <sodipodi:namedview
     id="namedview1"
     pagecolor="#ffffff"
     bordercolor="#000000"
     borderopacity="0.25"
     inkscape:showpageshadow="2"
     inkscape:pageopacity="0.0"
     inkscape:pagecheckerboard="0"
     inkscape:deskcolor="#d1d1d1">
    <inkscape:page
       x="0"
       y="0"
       inkscape:label="1"
       id="page1"
       width="800"
       height="533.33331"
       margin="0"
       bleed="0" />
  </sodipodi:namedview>
  <g
     id="layer-MC0"
     inkscape:groupmode="layer"
     inkscape:label="Layer 1">
    <path
       id="path1"
       d="M 0,0 H 200 V 400 H 0 Z"
       style="fill:#007a5e;fill-opacity:1;fill-rule:nonzero;stroke:none"
       transform="matrix(1.3333333,0,0,-1.3333333,0,533.33333)" />
    <path
       id="path2"
       d="M 200,0 H 400 V 400 H 200 Z"
       style="fill:#ce1126;fill-opacity:1;fill-rule:nonzero;stroke:none"
       transform="matrix(1.3333333,0,0,-1.3333333,0,533.33333)" />
    <path
       id="path3"
       d="M 400,0 H 600.001 V 400 H 400 Z"
       style="fill:#fcd116;fill-opacity:1;fill-rule:nonzero;stroke:none"
       transform="matrix(1.3333333,0,0,-1.3333333,0,533.33333)" />
    <path
       id="path4"
       d="m 0,0 -16.481,-50.723 25.362,-8.24 z"
       style="fill:#fcd116;fill-opacity:1;fill-rule:nonzero;stroke:none"
       transform="matrix(1.3333333,0,0,-1.3333333,400,195.55533)" />
    <path
       id="path5"
       d="m 0,0 16.48,-50.723 -25.36,-8.24 z"
       style="fill:#fcd116;fill-opacity:1;fill-rule:nonzero;stroke:none"
       transform="matrix(1.3333333,0,0,-1.3333333,400,195.55533)" />
    <path
       id="path6"
       d="M 0,0 H -53.333 V -26.667 Z"
       style="fill:#fcd116;fill-opacity:1;fill-rule:nonzero;stroke:none"
       transform="matrix(1.3333333,0,0,-1.3333333,467.63027,244.692)" />
    <path
       id="path7"
       d="M 0,0 -43.147,-31.348 -58.821,-9.775 Z"
       style="fill:#fcd116;fill-opacity:1;fill-rule:nonzero;stroke:none"
       transform="matrix(1.3333333,0,0,-1.3333333,467.63027,244.692)" />
    <path
       id="path8"
       d="M 0,0 -16.481,50.723 -41.842,42.482 Z"
       style="fill:#fcd116;fill-opacity:1;fill-rule:nonzero;stroke:none"
       transform="matrix(1.3333333,0,0,-1.3333333,441.79813,324.19667)" />
    <path
       id="path9"
       d="m 0,0 -43.147,31.349 15.673,21.573 z"
       style="fill:#fcd116;fill-opacity:1;fill-rule:nonzero;stroke:none"
       transform="matrix(1.3333333,0,0,-1.3333333,441.79813,324.19667)" />
    <path
       id="path10"
       d="M 0,0 43.147,31.349 27.473,52.922 Z"
       style="fill:#fcd116;fill-opacity:1;fill-rule:nonzero;stroke:none"
       transform="matrix(1.3333333,0,0,-1.3333333,358.20187,324.19667)" />
    <path
       id="path11"
       d="M 0,0 16.481,50.723 41.843,42.482 Z"
       style="fill:#fcd116;fill-opacity:1;fill-rule:nonzero;stroke:none"
       transform="matrix(1.3333333,0,0,-1.3333333,358.20187,324.19667)" />
    <path
       id="path12"
       d="M 0,0 43.147,-31.348 58.822,-9.775 Z"
       style="fill:#fcd116;fill-opacity:1;fill-rule:nonzero;stroke:none"
       transform="matrix(1.3333333,0,0,-1.3333333,332.3692,244.692)" />
    <path
       id="path13"
       d="M 0,0 H 53.333 V -26.667 Z"
       style="fill:#fcd116;fill-opacity:1;fill-rule:nonzero;stroke:none"
       transform="matrix(1.3333333,0,0,-1.3333333,332.3692,244.692)" />
  </g>
</svg>
